icons/1_Primary/Shareworks.svg

<svg xmlns="http://www.w3.org/2000/svg" viewBox="0 0 1024 1024">
   <circle cx="512" cy="512" r="512" style="fill:#009da7"/>
   <path d="M377.2 551c-2.57 0-3.86-1.29-3.86-4.37V511.1c0-16.46-13.38-25.47-31.64-25.47-15.18 0-25.73 5.66-32.67 18l17.49 8.23c3.6-6.43 10-8.49 17-8.49 5.4 0 10 3.34 10 6.69 0 2.32-1 3.6-5.15 4.12C319.83 518 307 527.31 307 544c0 13.38 12.09 22.38 27 22.38 10.29 0 17.49-2.57 22.64-6.95 3.09 5.15 8 6.43 13.63 6.43a32.16 32.16 0 0 0 9.26-1.29v-13.85l-2.32.26zm-23.67-7.72a29.55 29.55 0 0 1-17.53 5.64c-5.4 0-9.52-1.8-9.52-6.43 0-6.17 9-9.78 22.12-12.86a36.81 36.81 0 0 0 4.63-1.29l.26 14.92zm54.54-47.33v-9H388v78.46h20.07v-47.62c4.12-8.75 11.32-13.12 22.38-13.12v-18.52c-10.03 0-16.72 2.57-22.38 9.77zM273 485.37c-8 0-15.44 3.86-20.58 8.49v-35.24h-20.06v106.76h20.07v-50.94c4.37-5.92 11.32-10.29 18.27-10.29 5.92 0 9 2.57 9 8v53.25h20.07v-56.6c-.01-15.97-11.58-23.43-26.77-23.43zm-81.55 17.24c-20.31-6.95-24.45-12.09-24.45-16.72 0-5.4 5.92-9.78 15.95-9.78 7.72 0 13.89 3.34 16.46 10.8l19.29-4.37c-5.15-15.69-16.72-25.21-37.3-25.21-20.84.51-36 12.86-36.27 30.1 0 17.24 15.18 26.24 35.24 33.44 18.52 6.69 22.12 9.52 22.12 16.21 0 4.89-5.15 11.06-18.27 11.06a26.38 26.38 0 0 1-23.41-15.69l-18.78 4.12c4.37 15.69 17 30.1 43.48 30.1s39.87-14.15 39.87-31.9c.04-10.29-5.62-22.38-33.92-32.16zm460-17c-22.64 0-38.85 15.95-38.85 40.39s16.21 40.65 38.85 40.65S690.3 550.44 690.3 526s-16.23-40.37-38.87-40.37zm-.51 63c-8 0-16.72-5.66-16.72-22.64s8.75-22.64 16.72-22.64 16.7 5.67 16.7 22.67-8.75 22.66-16.72 22.66zm208.63-29.58c-17-5.92-18.78-8.23-18.78-11.58 0-2.32 2.57-4.89 8.75-4.89 5.4 0 10.29 3.34 13.38 6.95l14.92-11.06c-6.69-8.23-17-12.86-28.81-12.86-14.66 0-27.78 7.72-27.78 22.38 0 10.8 8.23 19.55 26.24 25.47 10.8 3.6 14.41 5.4 14.41 9.26s-4.63 7.2-10.8 7.2-12.09-3.09-16.21-9.52l-16.21 7.72c5.92 10.55 15.69 18.52 31.9 18.52 18.78 0 31.39-9.78 31.39-25-.04-9.68-5.44-16.62-22.42-22.55zm-40.9-31.9h-25.75l-25 29.07v-57.84H747.9v107.28H768v-21.35l10.8-12.09 18.78 33.44h22.64l-28.3-48.36zm-101.1 8.75v-9h-20.09v78.46h20.07v-47.55c4.12-8.75 11.32-13.12 22.38-13.12v-18.52c-10.04 0-16.72 2.57-22.38 9.77zm-123.48-8.75L582 535.8l-12.09-48.62h-19.58l-12.09 48.62-12.35-48.62h-20.84l22.9 78.46h20.58l11.83-46.31 11.83 46.31H592l22.64-78.46zm-87 37.82c0-21.87-12.61-39.62-36.53-39.62-25.21 0-38.33 16.72-38.33 39.62 0 26.75 15.44 41.42 38.33 41.42 15.18 0 27.78-6.95 34-19.81l-17.24-8c-3.09 6.43-9.52 10.29-17.49 10.29-6.95 0-14.92-3.86-16.46-17.24h53.77zm-53.77-8.75c1.54-8.23 6.95-13.38 16.46-13.38s15.44 5.4 15.95 13.38z" style="fill:#fff"/>
</svg>

<svg width="1024" height="1024" viewBox="0 0 1024 1024" fill="none" xmlns="http://www.w3.org/2000/svg">
<g clip-path="url(#clip0_2_3453)">
<path d="M512 1024C794.77 1024 1024 794.77 1024 512C1024 229.23 794.77 0 512 0C229.23 0 0 229.23 0 512C0 794.77 229.23 1024 512 1024Z" fill="#96DFD3"/>
<path d="M377.2 551C374.63 551 373.34 549.71 373.34 546.63V511.1C373.34 494.64 359.96 485.63 341.7 485.63C326.52 485.63 315.97 491.29 309.03 503.63L326.52 511.86C330.12 505.43 336.52 503.37 343.52 503.37C348.92 503.37 353.52 506.71 353.52 510.06C353.52 512.38 352.52 513.66 348.37 514.18C319.83 518 307 527.31 307 544C307 557.38 319.09 566.38 334 566.38C344.29 566.38 351.49 563.81 356.64 559.43C359.73 564.58 364.64 565.86 370.27 565.86C373.403 565.883 376.523 565.449 379.53 564.57V550.72L377.21 550.98L377.2 551ZM353.53 543.28C348.437 546.979 342.295 548.955 336 548.92C330.6 548.92 326.48 547.12 326.48 542.49C326.48 536.32 335.48 532.71 348.6 529.63C350.17 529.301 351.716 528.871 353.23 528.34L353.49 543.26L353.53 543.28ZM408.07 495.95V486.95H388V565.41H408.07V517.79C412.19 509.04 419.39 504.67 430.45 504.67V486.15C420.42 486.15 413.73 488.72 408.07 495.92V495.95ZM273 485.37C265 485.37 257.56 489.23 252.42 493.86V458.62H232.36V565.38H252.43V514.44C256.8 508.52 263.75 504.15 270.7 504.15C276.62 504.15 279.7 506.72 279.7 512.15V565.4H299.77V508.8C299.76 492.83 288.19 485.37 273 485.37ZM191.45 502.61C171.14 495.66 167 490.52 167 485.89C167 480.49 172.92 476.11 182.95 476.11C190.67 476.11 196.84 479.45 199.41 486.91L218.7 482.54C213.55 466.85 201.98 457.33 181.4 457.33C160.56 457.84 145.4 470.19 145.13 487.43C145.13 504.67 160.31 513.67 180.37 520.87C198.89 527.56 202.49 530.39 202.49 537.08C202.49 541.97 197.34 548.14 184.22 548.14C179.234 548.006 174.388 546.46 170.244 543.683C166.101 540.906 162.83 537.011 160.81 532.45L142.03 536.57C146.4 552.26 159.03 566.67 185.51 566.67C211.99 566.67 225.38 552.52 225.38 534.77C225.42 524.48 219.76 512.39 191.46 502.61H191.45ZM651.45 485.61C628.81 485.61 612.6 501.56 612.6 526C612.6 550.44 628.81 566.65 651.45 566.65C674.09 566.65 690.3 550.44 690.3 526C690.3 501.56 674.07 485.63 651.43 485.63L651.45 485.61ZM650.94 548.61C642.94 548.61 634.22 542.95 634.22 525.97C634.22 508.99 642.97 503.33 650.94 503.33C658.91 503.33 667.64 509 667.64 526C667.64 543 658.89 548.66 650.92 548.66L650.94 548.61ZM859.57 519.03C842.57 513.11 840.79 510.8 840.79 507.45C840.79 505.13 843.36 502.56 849.54 502.56C854.94 502.56 859.83 505.9 862.92 509.51L877.84 498.45C871.15 490.22 860.84 485.59 849.03 485.59C834.37 485.59 821.25 493.31 821.25 507.97C821.25 518.77 829.48 527.52 847.49 533.44C858.29 537.04 861.9 538.84 861.9 542.7C861.9 546.56 857.27 549.9 851.1 549.9C844.93 549.9 839.01 546.81 834.89 540.38L818.68 548.1C824.6 558.65 834.37 566.62 850.58 566.62C869.36 566.62 881.97 556.84 881.97 541.62C881.93 531.94 876.53 525 859.55 519.07L859.57 519.03ZM818.67 487.13H792.92L767.92 516.2V458.36H747.9V565.64H768V544.29L778.8 532.2L797.58 565.64H820.22L791.92 517.28L818.67 487.13ZM717.57 495.88V486.88H697.48V565.34H717.55V517.79C721.67 509.04 728.87 504.67 739.93 504.67V486.15C729.89 486.15 723.21 488.72 717.55 495.92L717.57 495.88ZM594.09 487.13L582 535.8L569.91 487.18H550.33L538.24 535.8L525.89 487.18H505.05L527.95 565.64H548.53L560.36 519.33L572.19 565.64H592L614.64 487.18L594.09 487.13ZM507.09 524.95C507.09 503.08 494.48 485.33 470.56 485.33C445.35 485.33 432.23 502.05 432.23 524.95C432.23 551.7 447.67 566.37 470.56 566.37C485.74 566.37 498.34 559.42 504.56 546.56L487.32 538.56C484.23 544.99 477.8 548.85 469.83 548.85C462.88 548.85 454.91 544.99 453.37 531.61H507.14L507.09 524.95ZM453.32 516.2C454.86 507.97 460.27 502.82 469.78 502.82C479.29 502.82 485.22 508.22 485.73 516.2H453.32Z" fill="white"/>
</g>
<defs>
<clipPath id="clip0_2_3453">
<rect width="1024" height="1024" fill="white"/>
</clipPath>
</defs>
</svg>
